X:1075
T:Heaving of the Lead.
M:C
L:1/8
Q:1/4=104
Z:Jack Campin * www.campin.me.uk * 2009
K:G
G/>A/|B2B2  A2(c>A)| G2   F2    G2 zD|(GA) (Bc) d3    d |(ef) (ge) d2 z
d    |g3 f  e3   d |(cB) (AG)   F2 zA| d2   d2 (Be) (fg)| d2 T^c2  d2 z
d    |g3 g (gf2) f | ed   e2 {e}d2 zd|(dB2)  e (cA2)  d |(BG2)^c   d4 |
"^[Ad lib..."G>G A2G4|B>B c2 "^...]"HB3   \
B|(Ae) (dc) (cB) (dB)|(Ae) (dc) (cB) (dB)|
  (cB) (AB) (cB) (AB)|(ed) (ef) Hg4      |B3c ({B}A4)|G6|]
<end>
<start>
